dist/svg/file-copy-o.svg

<!-- Generated by Trend Micro Style Portal -->
<svg version="1.1" xmlns="http://www.w3.org/2000/svg" width="16" height="16" viewBox="0 0 16 16">
  <title>file-copy-o</title>
  <path fill="rgb(34,34,34)" d="M12 0h-6c-0.5 0-1 0.5-1 1v3h-3c-0.5 0-1 0.5-1 1v10c0 0.5 0.5 1 1 1h8c0.5 0 1-0.5 1-1v-3h3c0.5 0 1-0.5 1-1v-8l-3-3zM12 1.4l1.6 1.6h-1.6v-1.6zM10 15h-8v-10h5v3h3v7zM8 7v-1.6l1.6 1.6h-1.6zM14 11h-3v-4l-3-3h-2v-3h5v3h3v7z"></path>
</svg>

<svg width="16" height="16" viewBox="0 0 16 16" fill="rgb(34, 34, 34)" xmlns="http://www.w3.org/2000/svg"><title>file-copy-o</title><path d="M12 0H6C5.5 0 5 0.5 5 1V4H2C1.5 4 1 4.5 1 5V15C1 15.5 1.5 16 2 16H10C10.5 16 11 15.5 11 15V12H14C14.5 12 15 11.5 15 11V3L12 0ZM12 1.4L13.6 3H12V1.4ZM10 15H2V5H7V8H10V15ZM8 7V5.4L9.6 7H8ZM14 11H11V7L8 4H6V1H11V4H14V11Z" fill="rgb(34, 34, 34)" fill-opacity="1.00"/></svg>
